svgs/duotone/circle-q.svg

<svg xmlns="http://www.w3.org/2000/svg" viewBox="0 0 512 512"><!--! Font Awesome Pro 6.3.0 by @fontawesome - https://fontawesome.com License - https://fontawesome.com/license (Commercial License) Copyright 2023 Fonticons, Inc. --><defs><style>.fa-secondary{opacity:.4}</style></defs><path class="fa-primary" d="M256 128C185.4 128 128 185.4 128 256s57.41 128 128 128c26.64 0 51.37-8.209 71.88-22.18l15.15 15.15C347.7 381.7 353.8 384 360 384s12.28-2.344 16.97-7.031c9.375-9.375 9.375-24.56 0-33.94l-15.15-15.15C375.8 307.4 384 282.6 384 256C384 185.4 326.6 128 256 128zM326.7 292.7l-29.69-29.69c-9.375-9.375-24.56-9.375-33.94 0s-9.375 24.56 0 33.94l29.69 29.69C281.7 332.4 269.3 336 256 336c-44.13 0-80-35.89-80-80S211.9 176 256 176s80 35.89 80 80C336 269.3 332.4 281.7 326.7 292.7z"/><path class="fa-secondary" d="M256 176C211.9 176 176 211.9 176 256s35.88 80 80 80c13.31 0 25.67-3.576 36.72-9.344l-29.69-29.69c-9.375-9.375-9.375-24.56 0-33.94s24.56-9.375 33.94 0l29.69 29.69C332.4 281.7 336 269.3 336 256C336 211.9 300.1 176 256 176zM256 0C114.6 0 0 114.6 0 256s114.6 256 256 256s256-114.6 256-256S397.4 0 256 0zM376.1 343c9.375 9.375 9.375 24.56 0 33.94C372.3 381.7 366.2 384 360 384s-12.28-2.344-16.97-7.031l-15.15-15.15C307.4 375.8 282.6 384 256 384c-70.59 0-128-57.42-128-128s57.41-128 128-128s128 57.42 128 128c0 26.63-8.211 51.37-22.19 71.88L376.1 343z"/></svg>

<svg xmlns="http://www.w3.org/2000/svg" viewBox="0 0 512 512"><!-- Font Awesome Pro 6.0.0-alpha2 by @fontawesome - https://fontawesome.com License - https://fontawesome.com/license (Commercial License) --><defs><style>.fa-secondary{opacity:.4}</style></defs><path d="M256 16C123.451 16 16 123.451 16 256S123.451 496 256 496S496 388.549 496 256S388.549 16 256 16ZM376.969 343.031C386.344 352.406 386.344 367.594 376.969 376.969C372.281 381.656 366.156 384 360 384S347.719 381.656 343.031 376.969L327.879 361.816C307.371 375.791 282.639 384 256 384C185.406 384 128 326.578 128 256S185.406 128 256 128S384 185.422 384 256C384 282.635 375.789 307.369 361.814 327.877L376.969 343.031ZM256 176C211.875 176 176 211.891 176 256S211.875 336 256 336C269.307 336 281.67 332.424 292.719 326.656L263.031 296.969C253.656 287.594 253.656 272.406 263.031 263.031S287.594 253.656 296.969 263.031L326.656 292.719C332.426 281.67 336 269.305 336 256C336 211.891 300.125 176 256 176Z" class="fa-secondary"/><path d="M256 128C185.406 128 128 185.422 128 256S185.406 384 256 384C282.639 384 307.371 375.791 327.879 361.816L343.031 376.969C347.719 381.656 353.844 384 360 384S372.281 381.656 376.969 376.969C386.344 367.594 386.344 352.406 376.969 343.031L361.814 327.877C375.789 307.369 384 282.635 384 256C384 185.422 326.594 128 256 128ZM326.656 292.719L296.969 263.031C287.594 253.656 272.406 253.656 263.031 263.031S253.656 287.594 263.031 296.969L292.719 326.656C281.67 332.424 269.307 336 256 336C211.875 336 176 300.109 176 256S211.875 176 256 176S336 211.891 336 256C336 269.305 332.426 281.67 326.656 292.719Z" class="fa-primary"/></svg>
